X: 94
T:Patronello. WI.094
T:Petronella,aka. WI.094
M:2/4
L:1/16
Q:100
C:"a country dance"
S:Wm Irwin, Folio MS, c1850. AGG's Transcription
R:Country Dance
O:England
A:Lake District
Z:vmp.Chris Partington.2005
K:F
fc|A2(dB) G2cA|F2F2F2 A,C|F2(EF) G2(GF)|EFGE C2fc|!
A2(dB) G2cA|F2F2F2 A,C|F2EF G2E2|F4-F2||!
ec|A2af c2gb|b2bg ecBG|E2ge c2bg|a2af cfcA|!
F2af cfga|b2bg dBGD|E2ge dbge|1f2a2f2:|2fagf edcB|]
